X:1
T:Selection Test
M:4/4
L:1/8
K:G
|:"G"G2GA BAGB|"C"c2cd cAGB|"G"GGGA BAGE|"D"D2DE D2:|
|:"G"G2G2 "C"c2c2|"G"B2B2 "D"A2A2|"Em"G2G2 "Am"E2E2|"D"D2DE D2:|
